X: 51
T: Candy Gal
B: canberra pickers and fiddlers
B: old time tunes update
B: tunes
M:C|
L:1/8
Q: 1/4=190
K:A
V:1 
"A"(B[c2e2])B [c2e2][c2e2]| (B[c2e2])c [c2f2][c2e2]|(B[c2e2])c [c2e2](ef)|[ce]c [B2e2]A2AA:|
|:"A"A2[A2a2]A2[A2a2]- | [Aa]([Ae][ce])A [Be]c-[c2e2] |A2[A2a2]A2[A2a2]- |1[Aa]([Ae][ce])A [Be]A-[A2e2] :|2[Aa]([Ae][ce])A [Be]AEF|]
|:"D"A2f2"A"ecA2 | Ae2fe2EF |"D"A2f2"A"ecA2 | "E"Bc2B "A"A2EF |
"D"A2f2"A"ecA2 | "A"Ae2fe3e- | efed cBA2 |1 "E"Bc2B "A"A2EF:|2 "E"Bc2B "A"A4 |]
|:"A"A,CEA "D"FA3 | "A"c3Bc4 | "A"A,CEA "D"FA3 | "E"Bc2B "A"A4 |
"A"A,CEA "D"FA3 |"A"c3e c3B | ABcA "D"F2E2 | "E"Bc2B "A"A4 :|]
% abcbook-tune_id 67a7d9ec97c1244e6bdd21bc
% abcbook-tune_composer_id 
% abcbook-link-0 https://www.youtube.com/watch?v=DtEOEBaylr4
% abcbook-link-title-0 Candy Girl - Fiddle and Banjo
% abcbook-link-1 https://www.youtube.com/watch?v=H2MMp3tSXq4
% abcbook-link-title-1 Candy Girl
% abcbook-link-2 https://www.youtube.com/watch?v=121MUbY07PU
% abcbook-link-title-2 Candy Girl
% abcbook-boost 0
% abcbook-difficulty 0
% abcbook-tags old time tunes
% abcbook-tablature 
% abcbook-transpose 
% abcbook-tuning AEAE
% abcbook-lastupdated 1739149105198
% abcbook-src-url 
% abcbook-soundfonts 
% abcbook-repeats 1


